icons/type-icons/icons/text-x-pascal.svg

<?xml version="1.0" encoding="UTF-8" standalone="no"?>

<!-- Created with Inkscape (http://www.inkscape.org/) -->
<svg width="22" version="1.1" xmlns="http://www.w3.org/2000/svg" height="22" xmlns:inkscape="http://www.inkscape.org/namespaces/inkscape">
 <defs id="defs3871"/>
 <metadata id="metadata3874"/>
 <g inkscape:label="Capa 1" inkscape:groupmode="layer" id="layer1" transform="matrix(1 0 0 1 -326 -534.3622)">
  <path style="fill:#e00a5e" id="path4139" d="M 9 3.9472656 L 9 7.4472656 L 9 8 L 9 18 L 10 18 L 10 15 L 10 10.638672 C 10.75804 11.502302 11.85088 11.99821 13 12 C 15.20914 12 17 10.20914 17 8 C 17 5.79086 15.20914 4 13 4 C 11.85088 4.002 10.75804 4.4976981 10 5.3613281 L 10 5 L 10 3.9472656 L 9 3.9472656 z M 13 5 C 14.65685 5 16 6.34315 16 8 C 16 9.65685 14.65685 11 13 11 C 11.34315 11 10 9.65685 10 8 C 10 6.34315 11.34315 5 13 5 z " transform="matrix(1 0 0 1 326 534.3622)"/>
  <circle cx="331" cy="544.36218" style="fill:#e00a5e;stroke-width:2" id="path4671" r="1"/>
 </g>
</svg>

<?xml version="1.0" encoding="UTF-8"?>
<svg width="22" height="22" version="1.1" xmlns="http://www.w3.org/2000/svg">
 <g id="layer1" transform="translate(-326 -534.36)" fill="#e00a5e">
  <path id="path4139" transform="translate(326 534.36)" d="m9 3.9473v14.053h1v-7.3613c0.75804 0.86363 1.8509 1.3595 3 1.3613 2.2091 0 4-1.7909 4-4s-1.7909-4-4-4c-1.1491 2e-3 -2.242 0.4977-3 1.3613v-1.414h-1zm4 1.0527c1.6568 0 3 1.3432 3 3s-1.3432 3-3 3-3-1.3432-3-3 1.3432-3 3-3z"/>
  <circle id="path4671" cx="331" cy="544.36" r="1" stroke-width="2"/>
 </g>
</svg>
